X:273
T: ICH HAB ZU DIR GESAGT, MEIN KIND ICH LIEBE DICH
N: Z0271
O: Europa, Mitteleuropa, Deutschland, Sued - Deutschland, Bayern
R: Lyrisches Lied, Romanze
M: 2/4
L: 1/8
K: A
E | ABcd | c2B
c | dcde | d2c
E | ABcd | c2B
c | dBAG | A2z
c | edcd | e2d
c | defd | d2c
E | ABcd | c2B
c | dBAG | A2z

@@@ Tune index: 10031
